logo/html5-boilerplate.svg

<?xml version="1.0" encoding="UTF-8" standalone="no"?>
<svg width="256px" height="256px" viewBox="0 0 256 256" version="1.1" xmlns="http://www.w3.org/2000/svg" xmlns:xlink="http://www.w3.org/1999/xlink" preserveAspectRatio="xMidYMid">
	<g>
		<rect fill="#222222" x="0" y="0" width="256" height="256"></rect>
		<path d="M114.4064,35.2768 L91.8272,99.81952 L23.332864,100.00896 L78.84288,141.0304 L58.89536,207.26272 L114.9696,167.56224 L172.55424,209.71008 L151.4752,140.84096 L206.42304,99.81952 L138.11712,100.00896 L114.4064,35.2768" fill="#E08524"></path>
		<path d="M117.22752,34.335744 L139.99616,45.061632 L159.001088,96.998912 L140.184064,96.998912 L117.22752,34.340352" fill="#466770"></path>
		<path d="M156.3392,142.23872 L178.825728,153.28256 L233.246208,113.764864 L210.75968,101.789696 L156.3392,142.23872" fill="#304A51"></path>
		<path d="M156.30848,142.19776 L178.825728,153.233408 L200.114688,222.071808 L176.829952,210.22976 L156.30848,142.20032" fill="#466770"></path>
		<path d="M62.09536,209.61792 L114.9696,171.795968 L133.504512,185.532416 L83.5456,220.532224 L62.094336,209.618432" fill="#304A51"></path>
	</g>
</svg>

<svg viewBox="0 0 256 256" xmlns="http://www.w3.org/2000/svg"><path fill="#222" d="M0 0h256v256H0Z"/><path fill="#E08524" d="M114.4 35.27L91.82 99.81l-68.5.18 55.51 41.02 -19.95 66.23 56.07-39.71 57.58 42.14 -21.08-68.87 54.94-41.03 -68.31.18 -23.72-64.74"/><path fill="#466770" d="M117.22 34.33l22.76 10.72 19 51.93h-18.82L117.2 34.32"/><path fill="#304A51" d="M156.33 142.23l22.48 11.04 54.42-39.52 -22.49-11.98 -54.43 40.44"/><path fill="#466770" d="M156.3 142.19l22.51 11.03 21.28 68.83 -23.29-11.85 -20.53-68.03"/><path fill="#304A51" d="M62.09 209.61l52.87-37.83 18.53 13.73 -49.96 34.99 -21.46-10.92"/></svg>
